libs/icons/src/svg/columns.svg

<svg width="16" height="16" viewBox="0 0 16 16" fill="none" xmlns="http://www.w3.org/2000/svg">
<g clip-path="url(#clip0_3_3743)">
<path fill-rule="evenodd" clip-rule="evenodd" d="M14.6666 0.666664C15.0348 0.666664 15.3333 0.965141 15.3333 1.33333L15.3333 14.6667C15.3333 15.0349 15.0348 15.3333 14.6666 15.3333L12 15.3333C11.6318 15.3333 11.3333 15.0349 11.3333 14.6667L11.3333 1.33333C11.3333 0.965141 11.6318 0.666664 12 0.666664L14.6666 0.666664ZM14 2L12.6666 2L12.6666 14L14 14L14 8L14 2ZM9.33331 0.666664C9.7015 0.666664 9.99998 0.965141 9.99998 1.33333L9.99998 14.6667C9.99998 15.0349 9.7015 15.3333 9.33331 15.3333L6.66665 15.3333C6.29846 15.3333 5.99998 15.0349 5.99998 14.6667L5.99998 1.33333C5.99998 0.965141 6.29846 0.666664 6.66665 0.666664L9.33331 0.666664ZM8.66665 2L7.33331 2L7.33331 14L8.66665 14L8.66665 2ZM4.66665 1.33333C4.66665 0.96514 4.36817 0.666664 3.99998 0.666664L1.33331 0.666664C0.965124 0.666663 0.666647 0.96514 0.666647 1.33333L0.666646 14.6667C0.666646 15.0349 0.965123 15.3333 1.33331 15.3333L3.99998 15.3333C4.36817 15.3333 4.66665 15.0349 4.66665 14.6667L4.66665 1.33333ZM1.99998 2L3.33331 2L3.33331 14L1.99998 14L1.99998 2Z" fill="#202327"/>
</g>
<defs>
<clipPath id="clip0_3_3743">
<rect width="16" height="16" fill="white"/>
</clipPath>
</defs>
</svg>

<svg xmlns="http://www.w3.org/2000/svg" viewBox="0 0 16 16" class="sageicon"><path fill-rule="evenodd" d="M14.667.667c.368 0 .666.298.666.666v13.334a.667.667 0 0 1-.666.666H12a.667.667 0 0 1-.667-.666V1.333c0-.368.299-.666.667-.666h2.667ZM14 2h-1.333v12H14V2ZM9.333.667c.368 0 .667.298.667.666v13.334a.667.667 0 0 1-.667.666H6.667A.667.667 0 0 1 6 14.667V1.333c0-.368.298-.666.667-.666h2.666ZM8.667 2H7.333v12h1.334V2Zm-4-.667A.667.667 0 0 0 4 .667H1.333a.667.667 0 0 0-.666.666v13.334c0 .368.298.666.666.666H4a.667.667 0 0 0 .667-.666V1.333ZM2 2h1.333v12H2V2Z"/></svg>
